X: 1
T: Leave Well Alone
M: 12/8
L: 1/8
R: slide
K: Dmaj
|:f2A f2A f2e e2f | dBc d2f edB ABd |
f2A f2A f2e e2c | dBB ABd e3 d3 :|
|: ABd def a2f e2d | Bee efe d2B BAB |
ABd def a2f e2d | Bee efe d3 d3:|
